X: 1
T: Good Christian Men, Rejoice
Z: John Chambers <jc:trillian.mit.edu>
R: jig
M: 6/8
L: 1/8
K: F
F \
|  "F"F2F     A2B |     c2d     c2c |     F2F     A2B |     c2d   "C7"c3 \
|  "F"c2d "C7"c2B |  "F"A2G "Dm"F3  | "Gm"G2G "C7"A2G | "Dm"F2"C"G "F"A3 ||
|| "F"c2d "C7"c2B |  "F"A2G "Dm"F2F | "Gm"G2G "C7"A2G | "Dm"F2"C"G "F"A3 \
| "Bb"D2D "C7"E2E | "Dm"F3  "C7"c3  |  "F"A2A "C7"GFG |  "F"F3        z2 :|
